packages/vitzik-app/public/img/svg/instruments/instrument_Electric Keyboard 2.svg

<?xml version="1.0" encoding="utf-8"?>
<!-- Generator: Adobe Illustrator 25.0.0, SVG Export Plug-In . SVG Version: 6.00 Build 0)  -->
<svg version="1.1" xmlns="http://www.w3.org/2000/svg" xmlns:xlink="http://www.w3.org/1999/xlink" x="0px" y="0px"
	 viewBox="0 0 48 48" style="enable-background:new 0 0 48 48;" xml:space="preserve">
<style type="text/css">
	.st0{fill:#F5DAA7;}
	.st1{fill:#EDC472;}
	.st2{fill:#BC9B5B;}
	.st3{fill:#9A6A53;}
	.st4{fill:#855B47;}
	.st5{fill:#F4E2C1;}
	.st6{fill:#F7F7F7;}
	.st7{fill:#C8C3CA;}
	.st8{fill:#B78C7A;}
	.st9{fill:#7A5341;}
	.st10{fill:#704C3B;}
	.st11{fill:#CF9875;}
	.st12{fill:#C7865B;}
	.st13{clip-path:url(#SVGID_3_);}
	.st14{clip-path:url(#SVGID_4_);fill:#FFFFFF;stroke:#231F20;stroke-miterlimit:10;}
	.st15{fill:#FFFFFF;stroke:#231F20;stroke-miterlimit:10;}
	.st16{fill:none;stroke:#000000;stroke-width:4.5;stroke-miterlimit:10;}
	.st17{fill:#463C4B;}
	.st18{fill:#555A6E;}
	.st19{fill:#F06423;}
	.st20{fill:#FAA51E;}
	.st21{fill:#D7E6F0;}
	.st22{fill:#DADADA;}
	.st23{fill:#C4C6C6;}
	.st24{fill:#EDEEEF;}
	.st25{fill:#797981;}
	.st26{fill:#5A5A63;}
	.st27{fill:#494951;}
	.st28{fill:#29BAED;}
	.st29{fill:#DD9554;}
	.st30{fill:#CC8244;}
	.st31{fill:#805333;}
	.st32{fill:#A56A43;}
	.st33{fill:#CB8252;}
	.st34{fill:#ECF0F1;}
	.st35{fill:#603E26;}
	.st36{fill:#F9EAB0;}
	.st37{fill:#F5EFCA;}
	.st38{fill:#464F5D;}
	.st39{fill:#F3D55B;}
	.st40{fill:#6F6571;}
	.st41{fill:#4B3F4E;}
	.st42{fill:#5D5360;}
	.st43{fill:#857E87;}
	.st44{fill:#ECEAEC;}
	.st45{fill:#DAD8DB;}
	.st46{fill:#B3E59F;}
	.st47{fill:#CCF49F;}
	.st48{fill:#792A47;}
	.st49{fill:#A62B38;}
	.st50{fill:#D22D28;}
	.st51{fill:#FF2F19;}
	.st52{fill:#FFFFFF;}
	.st53{fill:#202666;}
	.st54{fill:#FDE6BB;}
	.st55{fill:#FE501F;}
	.st56{fill:#FD7226;}
	.st57{fill:#FCCD76;}
	.st58{fill:#FB932C;}
	.st59{fill:#4D2857;}
	.st60{fill:#B19046;}
	.st61{fill:#F0C419;}
	.st62{fill:#24AE5F;}
	.st63{fill:#E64C3C;}
	.st64{fill:#3B97D3;}
	.st65{fill:#E74444;}
	.st66{fill:#CE3536;}
	.st67{fill:#D9DBDD;}
	.st68{fill:#E8EDF1;}
	.st69{fill:#F3DB70;}
	.st70{fill:#D5DAF3;}
	.st71{fill:#A2AEE6;}
	.st72{fill:#FFC344;}
	.st73{fill:#FFE177;}
	.st74{fill:#BEC6ED;}
	.st75{fill:#8795DE;}
	.st76{fill-rule:evenodd;clip-rule:evenodd;fill:#A46A5A;}
	.st77{fill-rule:evenodd;clip-rule:evenodd;fill:#845252;}
	.st78{fill-rule:evenodd;clip-rule:evenodd;fill:#FFD05B;}
	.st79{fill-rule:evenodd;clip-rule:evenodd;fill:#704242;}
	.st80{fill-rule:evenodd;clip-rule:evenodd;fill:#FFC244;}
	.st81{fill-rule:evenodd;clip-rule:evenodd;fill:#596C76;}
	.st82{fill-rule:evenodd;clip-rule:evenodd;fill:#465A61;}
	.st83{fill:#A46A5A;}
	.st84{fill:#607D8B;}
	.st85{fill:#9C27B0;}
	.st86{fill:#03A9F4;}
	.st87{fill:#8BC34A;}
	.st88{fill:#FFC107;}
	.st89{fill:#FF9800;}
	.st90{fill:#F44336;}
	.st91{fill:#D7CCC8;}
	.st92{fill:#F57C00;}
	.st93{fill:#F9BB4B;}
	.st94{fill:#FCF05A;}
	.st95{fill:#66342E;}
	.st96{fill:#D3843D;}
	.st97{fill:#704C55;}
	.st98{fill:#5A344B;}
	.st99{fill:#E63950;}
	.st100{fill:#EFE2DD;}
	.st101{fill:#FF435B;}
	.st102{fill:#FFF5F5;}
	.st103{fill:#9B786F;}
	.st104{fill:#925CB4;}
	.st105{fill:#814BA2;}
	.st106{fill:#6F3F8A;}
	.st107{fill:#FFD185;}
	.st108{fill:#FFBA48;}
	.st109{fill:#FF5A35;}
	.st110{fill:#FF7A3C;}
	.st111{fill:#FFE8C2;}
	.st112{fill:#4F4F4F;}
	.st113{fill:#FF3A2F;}
	.st114{fill:#353535;}
	.st115{fill:#FB4A59;}
	.st116{fill:#F82F40;}
	.st117{fill:#3F5959;}
	.st118{fill:#384848;}
	.st119{fill:#EFF5F6;}
	.st120{fill:#CBE5E7;}
	.st121{fill:#FCC16D;}
	.st122{fill:#FCB44D;}
	.st123{fill:#A66856;}
	.st124{fill:#735458;}
	.st125{fill:#FFDEA9;}
	.st126{fill:#5C4346;}
	.st127{fill:#8F5040;}
	.st128{fill:#595959;}
	.st129{fill:#7F221C;}
	.st130{fill:#913122;}
	.st131{fill:#FFEFB0;}
	.st132{fill:#DB2116;}
	.st133{fill:#883F2E;}
	.st134{fill:#A44F3E;}
	.st135{fill:#D8AA5E;}
	.st136{fill:#E9B665;}
	.st137{fill:#E19974;}
	.st138{fill:#FFEFD2;}
	.st139{fill:#D7D0D6;}
	.st140{fill:#E8AD8C;}
	.st141{fill:#6D3326;}
	.st142{fill:#BA5D4F;}
	.st143{fill:#F5A871;}
	.st144{fill:#E89A5E;}
	.st145{fill:#A34F41;}
	.st146{fill:#D68A5A;}
	.st147{fill:#FFE5C4;}
	.st148{fill:#FDD1A7;}
	.st149{fill:#873F30;}
	.st150{fill:#C86F5C;}
	.st151{fill:#6C3328;}
	.st152{fill:#54231D;}
	.st153{fill:#B5B1B3;}
	.st154{fill:#FEC93E;}
	.st155{fill:#EFB533;}
	.st156{fill:#F7A738;}
	.st157{fill:#EA952F;}
	.st158{fill:#FD6E2E;}
	.st159{fill:#EA551B;}
	.st160{fill:#F5A257;}
	.st161{fill:#DB8F52;}
	.st162{fill:#75360D;}
	.st163{fill:#FFBF7B;}
	.st164{fill:#00CCB2;}
	.st165{fill:#00AB94;}
	.st166{fill:#FEA832;}
	.st167{fill:#FF8700;}
	.st168{fill:#00EED0;}
	.st169{fill:#FFD400;}
	.st170{fill:#FDBF00;}
	.st171{fill:#08B865;}
	.st172{fill:#E41F2D;}
	.st173{fill:#FD4755;}
	.st174{fill:#FB2B3A;}
	.st175{fill:#FED2A4;}
	.st176{fill:#FFE5C2;}
	.st177{fill:#FFBD86;}
	.st178{fill:#FE99A0;}
	.st179{fill:#FD8087;}
	.st180{fill:#C57A44;}
	.st181{fill:#09A755;}
	.st182{fill:#FEDF30;}
	.st183{fill:#FED402;}
	.st184{fill:#FAC600;}
	.st185{fill:#46CC8D;}
	.st186{fill:#00C27A;}
	.st187{fill:#FE7701;}
	.st188{fill:#FE860A;}
	.st189{fill:#C41926;}
	.st190{fill:#E89C5D;}
	.st191{fill:#F4B37D;}
	.st192{fill:#E8626C;}
	.st193{fill:#40C6C2;}
	.st194{fill:#FFC999;}
	.st195{fill:#4A4A68;}
	.st196{fill:#333356;}
	.st197{fill:#EDEDED;}
	.st198{fill:#C9C9C9;}
	.st199{fill:#FF9900;}
	.st200{fill:#FFCE00;}
	.st201{fill:#FBBD00;}
	.st202{fill:#ED8100;}
	.st203{fill:#FFE431;}
	.st204{fill:#FF9F00;}
	.st205{fill:#FFE666;}
	.st206{fill:#FFBF00;}
	.st207{fill:#FCCD31;}
	.st208{fill:#F2B016;}
	.st209{fill:#4A4D4F;}
	.st210{fill:#D3CBC2;}
	.st211{fill:#6D7072;}
	.st212{fill:#BAAFA6;}
	.st213{fill:#888C8E;}
	.st214{fill:#B4B4B4;}
	.st215{fill:#FFE999;}
	.st216{fill:#FFCF3B;}
	.st217{fill:#C1C1C1;}
	.st218{fill:#FFBC19;}
	.st219{fill:#94E6FF;}
	.st220{fill:#315F83;}
	.st221{fill:#267EA8;}
	.st222{fill:#3B3F5F;}
	.st223{fill:#D8F2FB;}
	.st224{fill:#35495E;}
	.st225{fill:#556080;}
	.st226{fill:#E4C05C;}
	.st227{fill:#E4C05C;stroke:#E4C05C;stroke-width:2;stroke-linecap:round;stroke-linejoin:round;stroke-miterlimit:10;}
	.st228{fill:#B57F5F;}
	.st229{fill:#966A5B;}
	.st230{fill:#FFD15B;}
	.st231{fill:#A5C3DC;}
	.st232{fill:#8697CB;}
	.st233{fill:#E0E0E0;}
	.st234{fill:#CCCCCC;}
	.st235{fill:#8E8E8E;}
	.st236{fill:#A0A0A0;}
	.st237{fill:#E13732;}
	.st238{fill:#F05055;}
	.st239{fill:#D24605;}
	.st240{fill:#FFCE53;}
	.st241{fill:#FFB833;}
	.st242{fill:#4999D1;}
	.st243{fill:#43AAF0;}
	.st244{fill:#FF2E23;}
	.st245{fill:#FF4A26;}
	.st246{fill:#C6805D;}
	.st247{fill:#77CC7D;}
	.st248{fill:#52BD7E;}
	.st249{fill:#98DB7C;}
	.st250{fill:#D48C64;}
	.st251{fill:#FFD18D;}
	.st252{fill:#FBBD80;}
	.st253{fill:#F3B573;}
	.st254{fill:#434A54;}
	.st255{fill:#DA4453;}
	.st256{fill:#FFCE54;}
	.st257{fill:#ED5564;}
	.st258{fill-rule:evenodd;clip-rule:evenodd;fill:#4BC3EF;}
	.st259{fill-rule:evenodd;clip-rule:evenodd;fill:#1BADDE;}
	.st260{fill-rule:evenodd;clip-rule:evenodd;fill:#DBD8DB;}
	.st261{fill-rule:evenodd;clip-rule:evenodd;fill:#C9BFC8;}
	.st262{fill:#421815;}
	.st263{fill:#FCB982;}
	.st264{fill:#FDDBBF;}
	.st265{fill:#FCCA9F;}
	.st266{fill:#C6865C;}
	.st267{fill:#B16E3D;}
	.st268{fill:#454545;}
	.st269{fill:#EFECEF;}
	.st270{fill:#E2DFE2;}
	.st271{fill:#3F3736;}
	.st272{fill:#C4755B;}
	.st273{fill:#FFE3A1;}
	.st274{fill-rule:evenodd;clip-rule:evenodd;fill:#D48C64;}
	.st275{fill:#DBD8DB;}
	.st276{fill:#BB5D4C;}
	.st277{fill:#465A61;}
	.st278{fill:#596C76;}
	.st279{fill:#E5E1E5;}
	.st280{fill:#7A8C98;}
	.st281{fill:#FEDBA6;}
	.st282{fill:#EAB14D;}
	.st283{fill:#617881;}
	.st284{fill:#E28086;}
	.st285{fill:#DD636E;}
	.st286{fill:#FFE07D;}
	.st287{fill:#ECBE6B;}
	.st288{fill:#E9EDF5;}
	.st289{fill:#CDD2E1;}
	.st290{fill:#FFAA00;}
	.st291{fill:#FF9500;}
	.st292{fill:#555A65;}
	.st293{fill:#333940;}
	.st294{fill:#E6A373;}
	.st295{fill:#CC8552;}
	.st296{fill:#FFDF40;}
	.st297{fill:#FFBE40;}
	.st298{fill:#FF9F40;}
	.st299{fill:#F77E00;}
	.st300{fill:#FFF04A;}
	.st301{fill:#00DDC1;}
	.st302{fill:#A24603;}
	.st303{fill:#F2D813;}
	.st304{fill:#803602;}
	.st305{fill:#3A3A3A;}
	.st306{fill:#AFAFAF;}
	.st307{fill:#686868;}
	.st308{fill:#925A15;}
	.st309{fill:#F3F2F6;}
	.st310{fill:#BF7D5A;}
	.st311{fill:#AA6256;}
	.st312{fill:#894E46;}
	.st313{fill:#DBA660;}
	.st314{fill:#E49542;}
	.st315{fill:#F9EFDA;}
	.st316{fill:#756E78;}
	.st317{fill:#665E66;}
	.st318{fill:#F9F6F9;}
	.st319{fill:#BC6C59;}
	.st320{fill:#994B39;}
	.st321{fill:#FEEC96;}
	.st322{fill:#F5DB64;}
	.st323{fill:#5D5E69;}
	.st324{fill:#FFE09F;}
	.st325{fill:#ECBD83;}
	.st326{fill:#F6D190;}
	.st327{fill:#FF8086;}
	.st328{fill:#E5646E;}
	.st329{fill:#357DA3;}
	.st330{fill:#F48A3B;}
	.st331{fill:#FFC233;}
	.st332{fill:#CDDEE0;}
	.st333{fill:#C8C5C9;}
	.st334{fill:#785353;}
	.st335{fill:#6E4848;}
	.st336{fill:#B7E4F8;}
	.st337{fill:#93D6F4;}
	.st338{fill:#DBF1FB;}
	.st339{fill:#8DCAFC;}
	.st340{fill:#64B9FC;}
	.st341{fill:#C4E1FF;}
	.st342{fill:#B5DBFD;}
	.st343{fill:#FEE7C9;}
	.st344{fill:#FFD496;}
	.st345{fill:#A3E440;}
	.st346{fill:#99D53B;}
	.st347{fill:#BCEA73;}
	.st348{fill:#C76D3D;}
	.st349{fill:#AA5E33;}
	.st350{fill:#D67F4F;}
	.st351{fill:#8DC637;}
	.st352{fill:#A79BA7;}
	.st353{fill:#7A6D79;}
	.st354{fill:#C4E2FF;}
	.st355{fill:#60B7FF;}
	.st356{fill:#B3DAFE;}
	.st357{fill:#F3F0F3;}
	.st358{fill:#EFEDEF;}
	.st359{fill:#CBC4CC;}
	.st360{fill:#26A6FE;}
	.st361{fill:#D2555A;}
	.st362{fill:#FF6464;}
	.st363{fill:#D7DEED;}
	.st364{fill:#B8BFD4;}
	.st365{fill:#959CB3;}
	.st366{fill:#F8C460;}
	.st367{fill:#FAAF42;}
	.st368{fill:#7A838B;}
	.st369{fill:#5D6972;}
	.st370{fill:#A7D0E1;}
	.st371{fill:#80BBCE;}
	.st372{fill:#FFD8CA;}
	.st373{fill:#FFBFAE;}
	.st374{fill:#FFE5D8;}
	.st375{fill:#E5EEF9;}
	.st376{fill:#56595E;}
	.st377{fill:#7F8284;}
	.st378{fill:#A5A5A4;}
	.st379{fill:#95A5A5;}
	.st380{fill:#BDC3C7;}
	.st381{fill:#7F8C8D;}
</style>
<g id="Acoustic_Grand_Keyboard">
	<g>
		<path class="st40" d="M46.45,12.39H1.55l-0.89,1.55v19.58c0,0.86,0.69,1.55,1.55,1.55h44.25l1.55-1V13.94
			C48,13.08,47.31,12.39,46.45,12.39z"/>
		<path class="st41" d="M10.84,16.26c0,2.14-1.73,3.87-3.87,3.87c-2.14,0-3.87-1.73-3.87-3.87s1.73-3.87,3.87-3.87
			C9.11,12.39,10.84,14.12,10.84,16.26z"/>
		<path class="st41" d="M44.9,16.26c0,2.14-1.73,3.87-3.87,3.87c-2.14,0-3.87-1.73-3.87-3.87s1.73-3.87,3.87-3.87
			C43.17,12.39,44.9,14.12,44.9,16.26z"/>
		<path class="st42" d="M1.55,32.52V12.39C0.69,12.39,0,13.08,0,13.94v20.13c0,0.86,0.69,1.55,1.55,1.55h2.32l19-0.83l21.25,0.83
			h2.32c0.86,0,1.55-0.69,1.55-1.55H3.1C2.24,34.06,1.55,33.37,1.55,32.52z"/>
		<path class="st43" d="M24.77,24h-1.55c-0.43,0-0.77-0.35-0.77-0.77s0.35-0.77,0.77-0.77h1.55c0.43,0,0.77,0.35,0.77,0.77
			S25.2,24,24.77,24z"/>
		<path class="st43" d="M29.42,24h-1.55c-0.43,0-0.77-0.35-0.77-0.77s0.35-0.77,0.77-0.77h1.55c0.43,0,0.77,0.35,0.77,0.77
			C30.19,23.65,29.85,24,29.42,24z"/>
		<path class="st43" d="M20.13,24h-1.55c-0.43,0-0.77-0.35-0.77-0.77s0.35-0.77,0.77-0.77h1.55c0.43,0,0.77,0.35,0.77,0.77
			S20.56,24,20.13,24z"/>
		<path class="st43" d="M13.94,24h-1.55c-0.43,0-0.77-0.35-0.77-0.77s0.35-0.77,0.77-0.77h1.55c0.43,0,0.77,0.35,0.77,0.77
			S14.36,24,13.94,24z"/>
		<path class="st43" d="M35.61,24h-1.55c-0.43,0-0.77-0.35-0.77-0.77s0.35-0.77,0.77-0.77h1.55c0.43,0,0.77,0.35,0.77,0.77
			S36.04,24,35.61,24z"/>
		<path class="st44" d="M43.35,26.91H4.65l-0.77,0.96v6.19l20.18,0.76l20.08-0.76v-6.19L43.35,26.91z"/>
		<path class="st45" d="M43.35,26.32H4.65c-0.43,0-0.77,0.35-0.77,0.77v0.77h40.26V27.1C44.13,26.67,43.78,26.32,43.35,26.32z"/>
		<path class="st46" d="M20.13,16.26v2.32c0,0.43,0.35,0.77,0.77,0.77h6.19c0.43,0,0.77-0.35,0.77-0.77v-0.77l-6.19-2.32H20.9
			C20.48,15.48,20.13,15.83,20.13,16.26z"/>
		<g>
			<path class="st42" d="M17.03,17.81c-0.43,0-0.77-0.35-0.77-0.77v-1.55c0-0.43,0.35-0.77,0.77-0.77c0.43,0,0.77,0.35,0.77,0.77
				v1.55C17.81,17.46,17.46,17.81,17.03,17.81z"/>
			<path class="st42" d="M13.94,17.81c-0.43,0-0.77-0.35-0.77-0.77v-1.55c0-0.43,0.35-0.77,0.77-0.77c0.43,0,0.77,0.35,0.77,0.77
				v1.55C14.71,17.46,14.36,17.81,13.94,17.81z"/>
			<path class="st42" d="M30.97,17.81c-0.43,0-0.77-0.35-0.77-0.77v-1.55c0-0.43,0.35-0.77,0.77-0.77c0.43,0,0.77,0.35,0.77,0.77
				v1.55C31.74,17.46,31.4,17.81,30.97,17.81z"/>
			<path class="st42" d="M34.06,17.81c-0.43,0-0.77-0.35-0.77-0.77v-1.55c0-0.43,0.35-0.77,0.77-0.77c0.43,0,0.77,0.35,0.77,0.77
				v1.55C34.84,17.46,34.49,17.81,34.06,17.81z"/>
			<path class="st42" d="M1.55,19.35H48v1.55H1.55V19.35z"/>
		</g>
		<path class="st41" d="M0,19.35h1.55v1.55H0V19.35z"/>
		<path class="st45" d="M3.87,34.06h40.26v1.55H3.87V34.06z"/>
		<path class="st42" d="M6.97,32.52c-0.43,0-0.77-0.35-0.77-0.77v-5.42h1.55v5.42C7.74,32.17,7.4,32.52,6.97,32.52z"/>
		<path class="st41" d="M6.19,26.32h1.55v1.55H6.19V26.32z"/>
		<path class="st42" d="M10.84,32.52c-0.43,0-0.77-0.35-0.77-0.77v-5.42h1.55v5.42C11.61,32.17,11.27,32.52,10.84,32.52z"/>
		<path class="st41" d="M10.06,26.32h1.55v1.55h-1.55V26.32z"/>
		<path class="st42" d="M13.94,32.52c-0.43,0-0.77-0.35-0.77-0.77v-5.42h1.55v5.42C14.71,32.17,14.36,32.52,13.94,32.52z"/>
		<path class="st41" d="M13.16,26.32h1.55v1.55h-1.55V26.32z"/>
		<path class="st42" d="M17.03,32.52c-0.43,0-0.77-0.35-0.77-0.77v-5.42h1.55v5.42C17.81,32.17,17.46,32.52,17.03,32.52z"/>
		<path class="st41" d="M16.26,26.32h1.55v1.55h-1.55V26.32z"/>
		<path class="st42" d="M20.9,32.52c-0.43,0-0.77-0.35-0.77-0.77v-5.42h1.55v5.42C21.68,32.17,21.33,32.52,20.9,32.52z"/>
		<path class="st41" d="M20.13,26.32h1.55v1.55h-1.55V26.32z"/>
		<path class="st42" d="M24,32.52c-0.43,0-0.77-0.35-0.77-0.77v-5.42h1.55v5.42C24.77,32.17,24.43,32.52,24,32.52z"/>
		<path class="st41" d="M23.23,26.32h1.55v1.55h-1.55V26.32z"/>
		<path class="st42" d="M27.87,32.52c-0.43,0-0.77-0.35-0.77-0.77v-5.42h1.55v5.42C28.65,32.17,28.3,32.52,27.87,32.52z"/>
		<path class="st41" d="M27.1,26.32h1.55v1.55H27.1V26.32z"/>
		<path class="st42" d="M30.97,32.52c-0.43,0-0.77-0.35-0.77-0.77v-5.42h1.55v5.42C31.74,32.17,31.4,32.52,30.97,32.52z"/>
		<path class="st41" d="M30.19,26.32h1.55v1.55h-1.55V26.32z"/>
		<path class="st42" d="M34.06,32.52c-0.43,0-0.77-0.35-0.77-0.77v-5.42h1.55v5.42C34.84,32.17,34.49,32.52,34.06,32.52z"/>
		<path class="st41" d="M33.29,26.32h1.55v1.55h-1.55V26.32z"/>
		<path class="st42" d="M37.94,32.52c-0.43,0-0.77-0.35-0.77-0.77v-5.42h1.55v5.42C38.71,32.17,38.36,32.52,37.94,32.52z"/>
		<path class="st41" d="M37.16,26.32h1.55v1.55h-1.55V26.32z"/>
		<path class="st42" d="M41.03,32.52c-0.43,0-0.77-0.35-0.77-0.77v-5.42h1.55v5.42C41.81,32.17,41.46,32.52,41.03,32.52z"/>
		<path class="st41" d="M40.26,26.32h1.55v1.55h-1.55V26.32z"/>
		<path class="st47" d="M27.87,17.81h-4.65c-0.86,0-1.55-0.69-1.55-1.55v-0.77h5.42c0.43,0,0.77,0.35,0.77,0.77V17.81z"/>
	</g>
</g>
<g id="Layer_2">
</g>
</svg>

<svg id="Acoustic_Grand_Keyboard" data-name="Acoustic Grand Keyboard" xmlns="http://www.w3.org/2000/svg" viewBox="0 0 48 48"><defs><style>.cls-1{fill:#6f6571;}.cls-2{fill:#4b3f4e;}.cls-3{fill:#5d5360;}.cls-4{fill:#857e87;}.cls-5{fill:#eceaec;}.cls-6{fill:#dad8db;}.cls-7{fill:#b3e59f;}.cls-8{fill:#ccf49f;}</style></defs><path class="cls-1" d="M46.45,12.39H1.55L.66,13.94V33.51A1.54,1.54,0,0,0,2.2,35.06H46.45l1.55-1V13.94A1.54,1.54,0,0,0,46.45,12.39Z"/><path class="cls-2" d="M10.84,16.26A3.87,3.87,0,1,1,7,12.39,3.87,3.87,0,0,1,10.84,16.26Z"/><path class="cls-2" d="M44.9,16.26A3.87,3.87,0,1,1,41,12.39,3.87,3.87,0,0,1,44.9,16.26Z"/><path class="cls-3" d="M1.55,32.52V12.39A1.54,1.54,0,0,0,0,13.94V34.06a1.54,1.54,0,0,0,1.55,1.55H3.87l19-.83,21.25.83h2.32A1.54,1.54,0,0,0,48,34.06H3.1A1.54,1.54,0,0,1,1.55,32.52Z"/><path class="cls-4" d="M24.77,24H23.23a.78.78,0,1,1,0-1.55h1.54a.78.78,0,1,1,0,1.55Z"/><path class="cls-4" d="M29.42,24H27.87a.78.78,0,0,1,0-1.55h1.55a.78.78,0,0,1,0,1.55Z"/><path class="cls-4" d="M20.13,24H18.58a.78.78,0,0,1,0-1.55h1.55a.78.78,0,0,1,0,1.55Z"/><path class="cls-4" d="M13.94,24H12.39a.78.78,0,1,1,0-1.55h1.55a.78.78,0,0,1,0,1.55Z"/><path class="cls-4" d="M35.61,24H34.06a.78.78,0,0,1,0-1.55h1.55a.78.78,0,1,1,0,1.55Z"/><path class="cls-5" d="M43.35,26.91H4.65l-.78,1v6.19l20.18.77,20.08-.77V27.87Z"/><path class="cls-6" d="M43.35,26.32H4.65a.78.78,0,0,0-.78.78v.77H44.13V27.1A.78.78,0,0,0,43.35,26.32Z"/><path class="cls-7" d="M20.13,16.26v2.32a.77.77,0,0,0,.77.77h6.2a.77.77,0,0,0,.77-.77v-.77l-6.19-2.33H20.9A.78.78,0,0,0,20.13,16.26Z"/><path class="cls-3" d="M17,17.81a.77.77,0,0,1-.77-.78V15.48a.77.77,0,0,1,.77-.77.78.78,0,0,1,.78.77V17A.78.78,0,0,1,17,17.81Z"/><path class="cls-3" d="M13.94,17.81a.78.78,0,0,1-.78-.78V15.48a.78.78,0,0,1,1.55,0V17A.78.78,0,0,1,13.94,17.81Z"/><path class="cls-3" d="M31,17.81a.78.78,0,0,1-.78-.78V15.48a.78.78,0,0,1,.78-.77.77.77,0,0,1,.77.77V17A.77.77,0,0,1,31,17.81Z"/><path class="cls-3" d="M34.06,17.81a.78.78,0,0,1-.77-.78V15.48a.78.78,0,0,1,1.55,0V17A.78.78,0,0,1,34.06,17.81Z"/><path class="cls-3" d="M1.55,19.35H48V20.9H1.55Z"/><path class="cls-2" d="M0,19.35H1.55V20.9H0Z"/><path class="cls-6" d="M3.87,34.06H44.13v1.55H3.87Z"/><path class="cls-3" d="M7,32.52a.78.78,0,0,1-.78-.78V26.32H7.74v5.42A.77.77,0,0,1,7,32.52Z"/><path class="cls-2" d="M6.19,26.32H7.74v1.55H6.19Z"/><path class="cls-3" d="M10.84,32.52a.78.78,0,0,1-.78-.78V26.32h1.55v5.42A.77.77,0,0,1,10.84,32.52Z"/><path class="cls-2" d="M10.06,26.32h1.55v1.55H10.06Z"/><path class="cls-3" d="M13.94,32.52a.78.78,0,0,1-.78-.78V26.32h1.55v5.42A.78.78,0,0,1,13.94,32.52Z"/><path class="cls-2" d="M13.16,26.32h1.55v1.55H13.16Z"/><path class="cls-3" d="M17,32.52a.77.77,0,0,1-.77-.78V26.32h1.55v5.42A.78.78,0,0,1,17,32.52Z"/><path class="cls-2" d="M16.26,26.32h1.55v1.55H16.26Z"/><path class="cls-3" d="M20.9,32.52a.78.78,0,0,1-.77-.78V26.32h1.55v5.42A.78.78,0,0,1,20.9,32.52Z"/><path class="cls-2" d="M20.13,26.32h1.55v1.55H20.13Z"/><path class="cls-3" d="M24,32.52a.77.77,0,0,1-.77-.78V26.32h1.54v5.42A.77.77,0,0,1,24,32.52Z"/><path class="cls-2" d="M23.23,26.32h1.54v1.55H23.23Z"/><path class="cls-3" d="M27.87,32.52a.77.77,0,0,1-.77-.78V26.32h1.55v5.42A.78.78,0,0,1,27.87,32.52Z"/><path class="cls-2" d="M27.1,26.32h1.55v1.55H27.1Z"/><path class="cls-3" d="M31,32.52a.78.78,0,0,1-.78-.78V26.32h1.55v5.42A.77.77,0,0,1,31,32.52Z"/><path class="cls-2" d="M30.19,26.32h1.55v1.55H30.19Z"/><path class="cls-3" d="M34.06,32.52a.78.78,0,0,1-.77-.78V26.32h1.55v5.42A.78.78,0,0,1,34.06,32.52Z"/><path class="cls-2" d="M33.29,26.32h1.55v1.55H33.29Z"/><path class="cls-3" d="M37.94,32.52a.78.78,0,0,1-.78-.78V26.32h1.55v5.42A.78.78,0,0,1,37.94,32.52Z"/><path class="cls-2" d="M37.16,26.32h1.55v1.55H37.16Z"/><path class="cls-3" d="M41,32.52a.77.77,0,0,1-.77-.78V26.32h1.55v5.42A.78.78,0,0,1,41,32.52Z"/><path class="cls-2" d="M40.26,26.32h1.55v1.55H40.26Z"/><path class="cls-8" d="M27.87,17.81H23.23a1.55,1.55,0,0,1-1.55-1.55v-.78H27.1a.78.78,0,0,1,.77.78Z"/></svg>
